packages/dnb-ui-lib/assets/icons/information_medium.svg

<svg width="24" height="24" viewBox="0 0 24 24" fill="none" xmlns="http://www.w3.org/2000/svg">
<path fill-rule="evenodd" clip-rule="evenodd" d="M10.9039 3C10.1392 3 9.51929 3.61991 9.51929 4.38462C9.51929 5.14932 10.1392 5.76923 10.9039 5.76923C11.6686 5.76923 12.2885 5.14932 12.2885 4.38462C12.2885 3.61991 11.6686 3 10.9039 3ZM9 9.34613C8.58579 9.34613 8.25 9.68192 8.25 10.0961C8.25 10.5103 8.58579 10.8461 9 10.8461H10.2692C10.556 10.8461 10.7885 11.0786 10.7885 11.3654V17.7115C10.7885 19.5277 12.2608 21 14.0769 21H15.3462C15.7604 21 16.0962 20.6642 16.0962 20.25C16.0962 19.8358 15.7604 19.5 15.3462 19.5H14.0769C13.0892 19.5 12.2885 18.6993 12.2885 17.7115V11.3654C12.2885 10.2502 11.3844 9.34613 10.2692 9.34613H9Z" fill="black"/>
</svg>

<svg width="24" height="24" viewBox="0 0 24 24" fill="none" xmlns="http://www.w3.org/2000/svg"><path fill-rule="evenodd" clip-rule="evenodd" d="M10.904 3a1.385 1.385 0 100 2.77 1.385 1.385 0 000-2.77zM9 9.346a.75.75 0 100 1.5h1.27a.52.52 0 01.519.52v6.346A3.288 3.288 0 0014.077 21h1.27a.75.75 0 000-1.5h-1.27c-.988 0-1.788-.8-1.788-1.788v-6.347a2.02 2.02 0 00-2.02-2.019H9z" fill="#000"/></svg>
